X:4330
T:Polka
L:1/8
M:2/4
O:Ireland
R:48-bar Polka
Z:Richard Robinson 
%%TUNEURL: http://www.leeds.ac.uk/music/Info/RRTuneBk/gettune/00001142.html
%%ID:00001142
K:G
D |\
G2 G>A | Bd de/f/ | gB B/A/G/A/ | BA AD | G2 G>A | Bd de/f/ | gB AB/A/ | G3 ::
D|\
GB/d/ g>g | fe e/f/g/e/ | dB B/A/G/A/ | BA AD | GB/d/ g>g | fe e/f/g/e/ | dB AB/A/ | G3 ::
d |\
g2 a2 | b3 d | gg aa | b2b/c'/b/a/ | ge e/f/g/e/ | dB g>e | dB AB/A/ | G3 :|
